X:2802507
T:Gr\/onl\aenderpolka
T:Polka from Greenland
S:Thomas M\/oller, harmonica and Anders J. \/OrtsM, guitar,
S:https://youtu.be/nkxMGGH71Ss, May 16, 2009.
S:Olivia und Lars beim Kulturnatten 2013 in NUUK, https://youtu.be/nkxMGGH71Ss,
S:March 4, 2013.
H:I've presented a set of three transcriptions (the second recording has a key
H:change), each of which is different. Here I tried to keep the spirit of the tune
H:while combining many of the most enjoyable variations into a single version
H:that reflects how I like to play it.
H:It's really a Greenland polka; I keep it with Scandinavian tunes for convenience.
N:From NH Country Dance (URL below), along with many New England, Canadian & Swedish
N:tunes, and resources for abc notation and New England traditional music and dance.
%
N: Note #1: To preserve formatting (font, spacing, etc.), use the
N: file header at the URL below; just follow accompanying instructions.
%
N: Note #2: This abc code is optimized for use with abcm2ps, which is used by
N: EasyABC and other abc apps. To abc2svg for display or printing look to see if there
N: is a file optimized for abc2svg. If not you may need to adjust the spacing in places.
%
Z:abc-transcription Peter Yarensky. I rely heavily on careful listening to the
Z:named sources aided by software to hear details. While not perfect, known
Z:substantial differences from other written sources receive careful attention.
Z:abc-copyright Peter Yarensky. You may reproduce this tune freely but
Z:please include the entire abc file including all the notes.
%%writefields HQSD
U:s = !slide!
U:t = !trill!
F:Tunes Home Page - https://fiddle-tunes.nhcountrydance.com/
F:abc Header & its Usage - https://fiddle-tunes.nhcountrydance.com/header-page/
M:2/4
L:1/16
R:Scandinavian Polka
G:Scandinavian Tunes ~ GanglÃ¥ts, Marches & Polkas
N: Tune Tags ~ Polka, Scandinavian
K:Dmaj
%%textfont Palatino-Italic 14
%%text Peter Yarensky's version in D
%%textfont Palatino-Roman 16
%%
A2 |\
"D" {ABc}d2d2 c2B2 | "D" A4 F2A2     | "G" B4 "A7" c4  | "D" !segno! d4 A2A2   |\
"D" B2A2 "G" G2F2     | "A7" E2AA A2AA  | "A7" A2>G2 F2G2 | "D" A4 A2A2      |
"D" d2d2 c2>B2        | "D" A4 F2A2     | "G" B4 "A7" c4  | "D" d4 A2A2      |\
"D" B2A2 "G" G2F2     | "A7" E2AA A2>A2 | "A7" A2G2 F2E2  | "D" D2 z2        ||
A2A2 |\
"D" F2AA A2AA         | "D" B2AA A2AG   | "D" F2AA A2AA   | "D" B2AA A2FA    |\
"D" d4 "A7" e4        | "D" f2AA B2A2   | "A7" e4 g4      | "D" d4 f4        |
"D" A2AA A2AA         | "D" B2AA A2AG   | "D" F2AA A2AA   | "D" B2AA A2FA    |\
"D" d4 "A7" e4        | "D" f2>A2 B2A2  | "A7" e4 g4      | "D" d4 !D.C.!f2  |]

